X:1
T:Title
%%score { ( 1 3 ) | ( 2 4 ) }
L:1/8
M:2/2
K:G
V:1 treble nm="Grand Piano"
V:3 treble 
V:2 treble 
V:4 treble 
V:1
 z8[Q:1/4=108] | z8 | z4 z2 [DGB][EGc] | [DGB]2 [CFA]4 [CDA][DB] | [CDA]2 .[B,DG]6 | z8 | %6
 z4 z2 [DGB][EGc] | [DGB]2 [DFA]2 [DGB]2 [DA]2 | [B,DG]6 .[B,DG]2 | [G,EG]2 [Ec]2 [Ec]2 [Ec]2 | %10
 [Ec]6 GA | B2 B2 B2 B2 | B6 B2 | [FA]2 [FA]2 [FA]2 [FA]2 |[M:3/4] [FA]6 |[M:1/4] [FA][FA] | %16
[M:4/4] B2 A2 B2 [G^c]2 |[M:3/4] [Fd]6 |[M:1/4] GA |[M:4/4] B2 B4 Bc | [GB]2 [FA]4 FG | %21
 [FA]2 [FA]2 [GB]2 A2 | G2 A2 B2 GA | B2 B4 AB | [EGc]2 [EGc]4 [EGc][EGc] | %25
 [DGB]2 [DFA]2 [DGB]2 [CDA]2 |[M:3/4] [B,DG]6 |] %27
V:2
 z4 z2 D2 | D2 G2 G2 A2 | B6[K:bass] G,G, | D,2 D,4 D,D, | G,,2 G,,4[K:treble] D2 | D2 G2 G2 A2 | %6
 B6[K:bass] G,G, | D,2 D,2 D,2 D,2 | G,,6 G,G, | C,2 [C,G,]2 [C,G,]2 [C,G,]2 | [C,G,]6 [C,G,]2 | %11
 [G,D]2 [G,D]2 [G,D]2 [G,D]2 | [G,D]6 [G,D]2 | [D,D]2 [D,D]2 [D,D]2 [D,D]2 |[M:3/4] [D,D]6 | %15
[M:1/4] [D,D][D,D] |[M:4/4][K:treble] [G,DG]2 [F,D]2 [G,DG]2[K:bass] [E,A,]2 |[M:3/4] [D,A,]6 | %18
[M:1/4] z[K:treble] G |[M:4/4] [G,DG]2 [G,DG]4 [G,DG][G,EG] | [D,D]2 [D,D]4 [D,A,D]2 | %21
 [D,D]2 [D,D]2 [D,D]2 [D,CD]2 | [G,D]2- [G,-CD]2 [G,DG]2 [G,B,][G,CG] | %23
 [G,DG]2 [G,DG]4 [G,=FG][G,FG] | C,2 C,4 C,C, | D,2 D,2 D,2 D,2 |[M:3/4] G,,6 |] %27
V:3
 x8 | x8 | x8 | x8 | x8 | x8 | x8 | x8 | x8 | x8 | z4 z2 E2 | x8 | x8 | x8 |[M:3/4] x6 | %15
[M:1/4] x2 |[M:4/4] x8 |[M:3/4] x6 |[M:1/4] x2 |[M:4/4] x8 | x8 | x8 | x8 | x8 | x8 | x8 | %26
[M:3/4] x6 |] %27
V:4
 x8 | x8 | x6[K:bass] x2 | x8 | x6[K:treble] x2 | x8 | x6[K:bass] x2 | x8 | x8 | x8 | x8 | x8 | %12
 x8 | x8 |[M:3/4] x6 |[M:1/4] x2 |[M:4/4][K:treble] x6[K:bass] x2 |[M:3/4] x6 | %18
[M:1/4] [G,B,]2[K:treble] |[M:4/4] x8 | x8 | x8 | B,2 z2 z4 | x8 | x8 | x8 |[M:3/4] x6 |] %27

